X:1
T:The Full Booner
M:10/8
K:Amix
|: Aee edB c2 dB | cee dBA f2 ge | Aee edB c2 dB | cee dBA A2 A2 ::
   gag ede fg ae | aaa ede fg fd | Aee edB c2 dB | cee dBA A2 A2 :|
